!!!OTL: Ich sach mir einen blauen Storchen
!!!ARE: Europa, Mitteleuropa, Deutschland
!!!SCT: L0071A
!!!YEM: Copyright 1995, estate of Helmut Schaffrath.
**kern
*ICvox
*Ivox
*M6/4
*k[b-e-]
*g:
{4dd
=1
2dd
4dd
4dd
4ee-
4ee-
=2
2dd
4dd
2cc}
{4cc
=3
2gg
2ffn
4ee-
4cc
=4
2dd
4g
2dd}
{4dd
=5
2dd
2ee-
4ffn
4dd
=6
2.cc
2g}
{4a
=7
2b-
2b-
4a
4a
=8
2g
4d
2g}
==
!!!AGN: Lied
!! Baseler Hs., 1544
!!!ONB: ESAC (Essen Associative Code) Database: ERK5
!!!AMT: compound duple
!!!AIN: vox
!!!EED: Helmut Schaffrath
!!!EEV: 1.0
*-
